X:1
T:Hor che lunge
T:Hor che lunge
T:Enrico Radesca di Foggia
T:Source : Canzonette a 2 voci---Libro III- Venetia---G.Vincenti---1616. Editor : André Vierendeels (10/04/14).
C:Enrico Radesca di Foggio
%%score [ 1 2 ] 3
L:1/8
Q:1/4=120
M:4/4
K:C
V:1 treble nm="Soprano" snm="S"
V:2 bass nm="Bass" snm="B"
V:3 bass nm="MusicXML Part"
V:1
 A8 | ^c4 e4- | e2 ^c2 d4- | d4 ^c4 | d4 z2 A2 | B2 c2 d4- | d4 A4 | B2 c2 B4 |[M:2/4] A4 :: %9
w: Hor|che lung'|* e'l mio|* be-|ne, pa-|tis- co'a- ma-|* re|pe- * *|ne.-|
w: O-|gni luo-|* go m'at-|* tri-|sta, sen-|za tua dol-|* ce|vi- * *|sta.|
w: E|se- ben|* ho- ra|* can-|to, io|mi con- su-|* mo'in|pian- * *|to.|
w: E|mi- ra-|* col d'A-|* mo-|re, Ch'io|vo- va sen-|* za|co- * *|re.|
w: Ma-|ohi- me|* tu non|* o-|di, e|del mio mal|* ti|go- * *|di,|
 e2 e2 |[M:4/4] e6 AA | B2 c4 B2 | c4 e4 | d2 B2 d2 d2 | A4 z2 A2 | G2 E2 G2 G2 | F4 F2 A2 | %17
w: Tor- na,|tor- na ben|mi- * *|o, deh|vi- ver sen- za|te, deh|vi- ver sen- za|te, sen- za|
w: Tor- na.....||||||||
w: Tor- na....||||||||
w: Tor- na....||||||||
w: go- di,|go- di cru-|de- * *|le, ch'al|fin di- rai'A- man-|te, ch'al|fin di- rai'A- man-|te, A- *|
 G4 A2 B2 | c4 B4- | B2 A2 A4- | A4 ^G4 | A8 :| %22
w: te, sen- za|te co-|* me pos-|* s'i-|o?|
w: |||||
w: |||||
w: |||||
w: man- te'A- *|man- te|* mio fe-|* de-|le.|
V:2
 A,,8 | A,,4 A,4- | A,4 G,4- | G,2 D,2 A,4 | D,4 z2 F,2 | G,2 A,2 D,4 | F,8 | E,8 |[M:2/4] A,,4 :: %9
w: Hor|che lung'|* e'l|* mio be-|ne, pa-|tis- co'a- ma-|re|pe-|ne.|
w: O-|gni luo-|* go|* m'at- tri-|sta, sen-|za ma dol-|ce|vi-|sta.|
w: E|se ben|* ho-|* ra can-|to, io|mi con- su-|mo'in|pian-|to.|
w: E|mi- ra-|* col|* d'A- mo-|re, ch'io|vi- va sen-|za|co-|re.|
w: Ma|ohi me|* tu|* non o-|di, e|del mio mal|ti|go-|di,|
 z4 |[M:4/4] A,2 A,2 A,2 F,F, | G,8 | C,8 | z4 z2 G,2 | F,2 D,2 F,2 F,2 | C,4 E,2 G,2 | D,4 F,4 | %17
w: |Tor- na, tor- na ben|mi-|o|deh|vi- ver sen- za|te, sen- za|te, co-|
w: |Tor- na... * * *|||||||
w: |Tor- na.... * * *|||||||
w: |Tor- na... * * *|||||||
w: |go- di, go- di cru-|de-|le,|ch'al|fin di- rai'A- man-|te, ch'al fin|di- rai'A-|
 C,2 E,2 D,4 | C,4 G,4 | F,4 D,4 | E,8 | A,,8 :| %22
w: me pos- s'i-|o, co-|me pos-|s'i-|o?|
w: |||||
w: |||||
w: |||||
w: man- te, A-|man- te|mio fe-|de-|le.|
V:3
 A,,8 | A,,4 A,4- | A,4 G,4- | G,2 D,2 A,4 | D,4 F,4 | G,2 A,2 D,4 | F,8 | E,8 |[M:2/4] A,,4 :: %9
 A,4 |[M:4/4] A,6 F,2 | G,8 | C,8 | D,2 B,,2 G,,2 G,2 | F,2 D,2 F,4 | C,4 E,2 G,2 | D,4 F,4 | %17
 C,2 E,2 D,4 | C,4 G,4 | F,4 D,4 | E,8 | A,,8 :| %22

